X:515
T: Mengjiangn
N: C0325
O: China, Jiangsu, Suzhou
S: III, 471]
N: Vereinzelt Verzierungen. In den einzelnen Strophen teilweise Noten-
N: textaenderungen. Vorspiel weggelassen.
N: Grundton in der kleinen Oktave
N: Wird nicht nach der Notation gesungen, sondern nach einem
N: Schauspieler der chines. xiju (wuxi) Lokaloper. - Die mengjiang
N: n ist die typischste Form fuer den Sueden dieser Provinz.
N: Frueher hiess dies "chun de mingzi" (Fruehlingsweise). Melodie
N: hier original. Der Text, obwohl schwer zu bestimmen, beschreibt
N: die 4 Jahreszeiten. Hier wird die Geschichte von Mengjiangn
N: erzaehlt, die an der grossen Mauer weint, weil ihr Mann dort
N: starb oder eingemauert wurde.(?) Saengerin: Huang Bai
N: s.a. C384 UND 1274
N: Pinyin-Text der ersten Strophe vorhanden!
R: Xiaodiao;chundiao; mengjiangn]
M: 2/4
L: 1/32
K: G
G2E2G8A4 | B2d2B2A2B8 | d4e2d2B2A2B2G2 | A16
d4d4B3dB2A2 | G2E2G2A2B6d2 | A2B2A2G2E2D2E2G2 | D16
E2G2D2E2G8 | A2B2G2A2B8 | d4B2A2G3AB2d2 | A2G2E12
E2G2A2B2G2A2F2E2 | D2B,2D2E2G6B2 | A2B2A2G2E2D2G2E2 | D16

